resources/svg/regular/exit-fullscreen.svg

<svg xmlns="http://www.w3.org/2000/svg" fill="currentColor" stroke="none" viewBox="0 0 24 24"><path d="M10 4H8v4H4v2h6zM8 20h2v-6H4v2h4zm12-6h-6v6h2v-4h4zm0-6h-4V4h-2v6h6z"/></svg>

<svg xmlns="http://www.w3.org/2000/svg" fill="currentColor" stroke="none" viewBox="0 0 24 24"><path d="M10 4L8 4 8 8 4 8 4 10 10 10zM8 20L10 20 10 14 4 14 4 16 8 16zM20 14L14 14 14 20 16 20 16 16 20 16zM20 8L16 8 16 4 14 4 14 10 20 10z"/></svg>
